-----BEGIN PGP SIGNATURE-----

iQIzBAABCgAdFiEEWeY0c2r9z5xtusOCYC1R6sqIfAEFAml0++oACgkQYC1R6sqI
fAF/cA/9EhFIJYj+IJWLBXpEZTJ1HbDkVNBBmVHKNOEXrTA04/eA55SGN1ROTfZq
VU1wxiYhjRYIHwjWVFQLLkf6TBlU8b7eNWF+pSRd72tSZE3JCY2iw7aOErV95kyt
3L3kqcPr7UYuA4X9+1985kz3ZDgi70LzTvHpmjuuvgeL+A5J/BVuCHOEdZuYZIL/
oRRSqg3t1B1bcHZxjBUmekWd4fHsUd/crdHtxdzIRSP7hrg36KP0g0IRiYq2o2kX
Zf7xGiF1PfHz+0LtCYi1kZgoLbqC0NpV9rPG2L5GrEldS2GVNtzSKMK4DW1Dic9/
H4YLVPlsnLHoX60CUm1TE3KwnxN0jIi5OWD7AUenJCf6Kbt1SoNmZOVK3CI5S75A
zHDfhvD1D3EBRD3oVmAZv+9ThCiw2XbalzCqO0LYJ4yQotxpMNGeptPSi6XleqRG
dV5RLcTeI8R1VZNPI1XiuecyNsYu2KwGxBa1XMPBLxUDq/vZkYwBgnDln0lDnSZD
XAXhmErM0fsW3n0cpzw4uDPWmgL+OB/pE3BwVG1AVESxxdFadWt5gGTRG7yOAktZ
CEwPNUnvdBhh07V+nl/2CQz7Dd8KaBP25waifEQQa8AljWT0HjDOc6zf/g9PMtaB
jLpt0QGhfv/f0jkMeVYX76udT9+UDyGt0PF/CgJJ6oOEgURsH9M=
=o2N6
-----END PGP SIGNATURE-----
